X: 2316
M: 6/8
L: 1/8
K: A
|:\
vC2vE uE2uA | FAE F3 | EFG uA2uB | vc2vd e3 |\
|:\
vcBc ud2ud | ede f3 | vF2vB Bcd | cBA GFE |\


